docs/.gitbook/assets/icon-crop-16@dark.svg

<svg width="32" height="32" viewBox="0 0 16 16" fill="none" xmlns="http://www.w3.org/2000/svg">
<rect x="0" y="0" width="16" height="16" fill="#181c1f"/>
<path fill-rule="evenodd" clip-rule="evenodd" d="M4.75 1C5.16421 1 5.5 1.33579 5.5 1.75V4H10.25C11.2165 4 12 4.7835 12 5.75V10.5H14.25C14.6642 10.5 15 10.8358 15 11.25C15 11.6642 14.6642 12 14.25 12H12V14.25C12 14.6642 11.6642 15 11.25 15C10.8358 15 10.5 14.6642 10.5 14.25V12H5.75C4.7835 12 4 11.2165 4 10.25V5.5H1.75C1.33579 5.5 1 5.16421 1 4.75C1 4.33579 1.33579 4 1.75 4H4V1.75C4 1.33579 4.33579 1 4.75 1ZM5.5 5.5V10.25C5.5 10.3881 5.61193 10.5 5.75 10.5H10.5V5.75C10.5 5.61193 10.3881 5.5 10.25 5.5H5.5Z" fill="#fff"/>
</svg>

<svg xmlns="http://www.w3.org/2000/svg" width="32" height="32" fill="none" viewBox="0 0 16 16"><path fill="#181c1f" d="M0 0h16v16H0z"/><path fill="#fff" fill-rule="evenodd" d="M4.75 1a.75.75 0 0 1 .75.75V4h4.75c.966 0 1.75.784 1.75 1.75v4.75h2.25a.75.75 0 0 1 0 1.5H12v2.25a.75.75 0 0 1-1.5 0V12H5.75A1.75 1.75 0 0 1 4 10.25V5.5H1.75a.75.75 0 0 1 0-1.5H4V1.75A.75.75 0 0 1 4.75 1m.75 4.5v4.75c0 .138.112.25.25.25h4.75V5.75a.25.25 0 0 0-.25-.25z" clip-rule="evenodd"/></svg>
